;FLAVOR:Marlin
;TIME:8703
;Filament used: 5.46392m
;Layer height: 0.2
;MINX:124
;MINY:62.373
;MINZ:0.2
;MAXX:176
;MAXY:182.353
;MAXZ:25
;Generated with Cura_SteamEngine 4.4.1
M140 S60
M105
M190 S60
M104 S200
M105
M109 S200
M82 ;absolute extrusion mode
M201 X500.00 Y500.00 Z100.00 E5000.00 ;Setup machine max acceleration
M203 X500.00 Y500.00 Z10.00 E50.00 ;Setup machine max feedrate
M204 P500.00 R1000.00 T500.00 ;Setup Print/Retract/Travel acceleration
M205 X8.00 Y8.00 Z0.40 E5.00 ;Setup Jerk
M220 S100 ;Reset Feedrate
M221 S100 ;Reset Flowrate

G28 ;Home

G92 E0 ;Reset Extruder
G1 Z2.0 F3000 ;Move Z Axis up
G1 X10.1 Y20 Z0.28 F5000.0 ;Move to start position
G1 X10.1 Y200.0 Z0.28 F1500.0 E15 ;Draw the first line
G1 X10.4 Y200.0 Z0.28 F5000.0 ;Move to side a little
G1 X10.4 Y20 Z0.28 F1500.0 E30 ;Draw the second line
G92 E0 ;Reset Extruder
G1 Z2.0 F3000 ;Move Z Axis up

G92 E0
G92 E0
G1 F1500 E-6.5
;LAYER_COUNT:125
;LAYER:0
M107
G0 F6000 X126.972 Y72.633 Z0.2
;TYPE:SKIRT
G1 F1500 E0
G1 F1200 X127.444 Y71.877 E0.02964
G1 X127.746 Y71.434 E0.04748
G1 X127.951 Y71.144 E0.05929
G1 X128.289 Y70.681 E0.07835
G1 X128.848 Y69.977 E0.10825
G1 X129.209 Y69.559 E0.12662
G1 X129.421 Y69.32 E0.13725
G1 X129.823 Y68.881 E0.15705
G1 X130.468 Y68.233 E0.18746
G1 X130.879 Y67.853 E0.20607
G1 X131.154 Y67.608 E0.21832
G1 X131.574 Y67.245 E0.23679
G1 X132.258 Y66.7 E0.26588
G1 X132.728 Y66.355 E0.28527
G1 X133.009 Y66.155 E0.29674
G1 X133.437 Y65.861 E0.31401
G1 X134.16 Y65.404 E0.34246
G1 X134.596 Y65.152 E0.35921
G1 X134.904 Y64.981 E0.37092
G1 X135.458 Y64.684 E0.39183
G1 X136.262 Y64.294 E0.42155
G1 X136.751 Y64.081 E0.43929
G1 X137.072 Y63.947 E0.45086
G1 X137.589 Y63.741 E0.46937
G1 X138.38 Y63.461 E0.49728
G1 X138.892 Y63.301 E0.51512
G1 X139.237 Y63.199 E0.52709
G1 X139.811 Y63.04 E0.5469
G1 X140.729 Y62.828 E0.57823
G1 X141.281 Y62.725 E0.59691
G1 X141.612 Y62.668 E0.60808
G1 X142.166 Y62.582 E0.62673
G1 X143.009 Y62.484 E0.65496
G1 X143.516 Y62.445 E0.67187
G1 X143.86 Y62.424 E0.68333
G1 X144.431 Y62.398 E0.70234
G1 X144.767 Y62.388 E0.71352
G1 X145.574 Y62.376 E0.74037
G1 X145.735 Y62.375 E0.74572
G1 X154.333 Y62.373 E1.03169
G1 X154.497 Y62.374 E1.03715
G1 X155.179 Y62.384 E1.05983
G1 X155.468 Y62.392 E1.06945
G1 X155.981 Y62.413 E1.08653
G1 X156.306 Y62.431 E1.09735
G1 X156.858 Y62.47 E1.11576
G1 X157.673 Y62.558 E1.14302
G1 X158.166 Y62.63 E1.15959
G1 X158.535 Y62.691 E1.17203
G1 X159.154 Y62.803 E1.19295
G1 X160.06 Y63.007 E1.22384
G1 X160.616 Y63.157 E1.243
G1 X160.944 Y63.251 E1.25434
G1 X161.455 Y63.406 E1.27211
G1 X162.24 Y63.676 E1.29972
G1 X162.717 Y63.861 E1.31673
G1 X163.068 Y64.005 E1.32935
G1 X163.645 Y64.252 E1.35023
G1 X164.473 Y64.648 E1.38075
G1 X164.961 Y64.907 E1.39913
G1 X165.251 Y65.066 E1.41013
G1 X165.737 Y65.343 E1.42873
G1 X166.482 Y65.808 E1.45794
G1 X166.946 Y66.124 E1.47662
G1 X167.216 Y66.314 E1.4876
G1 X167.661 Y66.637 E1.50588
G1 X168.404 Y67.227 E1.53744
G1 X168.847 Y67.611 E1.55694
G1 X169.079 Y67.818 E1.56728
G1 X169.492 Y68.197 E1.58592
G1 X170.142 Y68.846 E1.61648
G1 X170.544 Y69.282 E1.6362
G1 X170.768 Y69.532 E1.64736
G1 X171.107 Y69.923 E1.66458
G1 X171.638 Y70.586 E1.69283
G1 X171.951 Y71.009 E1.71033
G1 X172.171 Y71.316 E1.72289
G1 X172.502 Y71.797 E1.74231
G1 X172.943 Y72.493 E1.76972
G1 X173.203 Y72.939 E1.78689
G1 X173.388 Y73.268 E1.79944
G1 X173.672 Y73.796 E1.81938
G1 X174.077 Y74.634 E1.85034
G1 X174.314 Y75.181 E1.87017
G1 X174.434 Y75.469 E1.88054
G1 X174.626 Y75.949 E1.89774
G1 X174.916 Y76.766 E1.92657
G1 X175.075 Y77.277 E1.94437
G1 X175.175 Y77.615 E1.9561
G1 X175.335 Y78.194 E1.97608
G1 X175.547 Y79.114 E2.00748
G1 X175.647 Y79.652 E2.02568
G1 X175.696 Y79.941 E2.03543
G1 X175.789 Y80.528 E2.05519
G1 X175.897 Y81.465 E2.08656
G1 X175.933 Y81.969 E2.10337
G1 X175.95 Y82.261 E2.1131
G1 X175.976 Y82.842 E2.13244
G1 X175.986 Y83.2 E2.14435
G1 X175.999 Y84.271 E2.17998
G1 X176 Y84.405 E2.18444
G1 X176 Y160.646 E4.72022
G1 X175.999 Y160.797 E4.72524
G1 X175.989 Y161.526 E4.74949
G1 X175.98 Y161.834 E4.75974
G1 X175.959 Y162.337 E4.77649
G1 X175.942 Y162.647 E4.78681
G1 X175.902 Y163.218 E4.80585
G1 X175.807 Y164.085 E4.83486
G1 X175.73 Y164.597 E4.85208
G1 X175.674 Y164.932 E4.86338
G1 X175.568 Y165.514 E4.88305
G1 X175.376 Y166.372 E4.9123
G1 X175.24 Y166.883 E4.92988
G1 X175.145 Y167.218 E4.94146
G1 X174.975 Y167.784 E4.96112
G1 X174.685 Y168.624 E4.99068
G1 X174.497 Y169.105 E5.00785
G1 X174.359 Y169.443 E5.02
G1 X174.118 Y170.004 E5.0403
G1 X173.725 Y170.823 E5.07052
G1 X173.453 Y171.335 E5.0898
G1 X173.3 Y171.614 E5.10038
G1 X173.032 Y172.085 E5.11841
G1 X172.562 Y172.838 E5.14793
G1 X172.25 Y173.296 E5.16636
G1 X172.082 Y173.536 E5.17611
G1 X171.754 Y173.991 E5.19476
G1 X171.129 Y174.779 E5.22822
G1 X170.747 Y175.218 E5.24757
G1 X170.557 Y175.431 E5.25706
G1 X170.182 Y175.84 E5.27552
G1 X169.53 Y176.493 E5.30621
G1 X169.094 Y176.895 E5.32594
G1 X168.835 Y177.127 E5.3375
G1 X168.442 Y177.467 E5.35478
G1 X167.785 Y177.993 E5.38278
G1 X167.336 Y178.325 E5.40135
G1 X167.029 Y178.544 E5.41389
G1 X166.568 Y178.861 E5.4325
G1 X165.847 Y179.316 E5.46086
G1 X165.417 Y179.565 E5.47738
G1 X165.099 Y179.742 E5.48949
G1 X164.539 Y180.042 E5.51062
G1 X163.738 Y180.431 E5.54024
G1 X163.249 Y180.644 E5.55798
G1 X162.928 Y180.778 E5.56955
G1 X162.411 Y180.984 E5.58806
G1 X161.62 Y181.264 E5.61596
G1 X161.108 Y181.424 E5.63381
G1 X160.749 Y181.53 E5.64626
G1 X160.172 Y181.689 E5.66616
G1 X159.269 Y181.897 E5.69698
G1 X158.712 Y182.001 E5.71583
G1 X158.416 Y182.052 E5.72582
G1 X157.861 Y182.14 E5.74451
G1 X156.957 Y182.245 E5.77478
G1 X156.448 Y182.283 E5.79175
G1 X156.119 Y182.303 E5.80272
G1 X155.558 Y182.328 E5.82139
G1 X155.232 Y182.338 E5.83224
G1 X154.426 Y182.35 E5.85905
G1 X154.265 Y182.351 E5.86441
G1 X145.667 Y182.353 E6.15038
G1 X145.502 Y182.352 E6.15587
G1 X144.821 Y182.342 E6.17852
G1 X144.534 Y182.334 E6.18807
G1 X144.02 Y182.313 E6.20518
G1 X143.694 Y182.295 E6.21604
G1 X143.142 Y182.256 E6.23444
G1 X142.282 Y182.161 E6.26322
G1 X141.743 Y182.08 E6.28135
G1 X141.42 Y182.026 E6.29224
G1 X140.845 Y181.922 E6.31168
G1 X139.923 Y181.714 E6.34311
G1 X139.37 Y181.564 E6.36217
G1 X139.063 Y181.476 E6.37279
G1 X138.551 Y181.321 E6.39058
G1 X137.76 Y181.049 E6.41841
G1 X137.283 Y180.864 E6.43542
G1 X136.93 Y180.719 E6.44811
G1 X136.351 Y180.471 E6.46906
G1 X135.524 Y180.076 E6.49955
G1 X135.038 Y179.818 E6.51785
G1 X134.751 Y179.66 E6.52874
G1 X134.263 Y179.382 E6.54742
G1 X133.52 Y178.919 E6.57654
G1 X133.057 Y178.604 E6.59517
G1 X132.782 Y178.41 E6.60636
G1 X132.333 Y178.084 E6.62482
G1 X131.595 Y177.499 E6.65614
G1 X131.155 Y177.118 E6.6755
G1 X130.919 Y176.907 E6.68603
G1 X130.507 Y176.529 E6.70462
G1 X129.855 Y175.878 E6.73527
G1 X129.456 Y175.445 E6.75485
G1 X129.228 Y175.19 E6.76623
G1 X128.887 Y174.796 E6.78356
G1 X128.359 Y174.137 E6.81164
G1 X128.027 Y173.688 E6.83022
G1 X127.805 Y173.376 E6.84295
G1 X127.489 Y172.916 E6.86152
G1 X127.032 Y172.193 E6.88996
G1 X126.78 Y171.757 E6.90671
G1 X126.622 Y171.474 E6.91749
G1 X126.334 Y170.94 E6.93767
G1 X125.923 Y170.091 E6.96905
G1 X125.686 Y169.544 E6.98887
G1 X125.561 Y169.245 E6.99965
G1 X125.37 Y168.766 E7.0168
G1 X125.088 Y167.972 E7.04483
G1 X124.924 Y167.447 E7.06312
G1 X124.817 Y167.08 E7.07584
G1 X124.661 Y166.512 E7.09543
G1 X124.455 Y165.616 E7.12601
G1 X124.355 Y165.08 E7.14414
G1 X124.303 Y164.781 E7.15424
G1 X124.21 Y164.193 E7.17404
G1 X124.103 Y163.262 E7.2052
G1 X124.067 Y162.76 E7.22194
G1 X124.05 Y162.471 E7.23157
G1 X124.02 Y161.809 E7.25361
G1 X124.011 Y161.503 E7.2638
G1 X124.002 Y160.988 E7.28093
G1 X124 Y160.796 E7.28731
G1 X124 Y84.08 E9.8389
G1 X124.001 Y83.927 E9.84399
G1 X124.011 Y83.207 E9.86794
G1 X124.02 Y82.897 E9.87825
G1 X124.043 Y82.351 E9.89643
G1 X124.06 Y82.038 E9.90685
G1 X124.098 Y81.501 E9.92476
G1 X124.194 Y80.639 E9.95361
G1 X124.272 Y80.121 E9.97103
G1 X124.326 Y79.793 E9.98209
G1 X124.433 Y79.204 E10.002
G1 X124.632 Y78.317 E10.03223
G1 X124.766 Y77.818 E10.04942
G1 X124.858 Y77.495 E10.06059
G1 X125.032 Y76.918 E10.08063
G1 X125.321 Y76.084 E10.10999
G1 X125.505 Y75.614 E10.12678
G1 X125.641 Y75.282 E10.13871
G1 X125.882 Y74.721 E10.15902
G1 X126.275 Y73.902 E10.18923
G1 X126.547 Y73.39 E10.20851
G1 X126.7 Y73.111 E10.2191
G1 X126.972 Y72.633 E10.23739
G0 F6000 X127.32 Y72.831
G1 F1200 X127.775 Y72.102 E10.26597
G1 X128.077 Y71.659 E10.2838
G1 X128.274 Y71.38 E10.29516
G1 X128.612 Y70.917 E10.31423
G1 X129.151 Y70.239 E10.34304
G1 X129.512 Y69.821 E10.36141
G1 X129.716 Y69.59 E10.37166
G1 X130.118 Y69.151 E10.39146
G1 X130.74 Y68.527 E10.42076
G1 X131.151 Y68.147 E10.43938
G1 X131.416 Y67.91 E10.4512
G1 X131.836 Y67.547 E10.46967
G1 X132.495 Y67.022 E10.49769
G1 X132.965 Y66.677 E10.51708
G1 X133.235 Y66.485 E10.5281
G1 X133.663 Y66.191 E10.54537
G1 X134.361 Y65.751 E10.57281
G1 X134.797 Y65.499 E10.58956
G1 X135.093 Y65.334 E10.60083
G1 X135.647 Y65.037 E10.62174
G1 X136.422 Y64.661 E10.65039
G1 X136.911 Y64.448 E10.66813
G1 X137.22 Y64.319 E10.67927
G1 X137.737 Y64.113 E10.69778
G1 X138.499 Y63.843 E10.72467
G1 X139.011 Y63.683 E10.74251
G1 X139.343 Y63.585 E10.75402
G1 X139.917 Y63.426 E10.77383
G1 X140.803 Y63.221 E10.80408
G1 X141.355 Y63.118 E10.82275
G1 X141.673 Y63.063 E10.83349
G1 X142.227 Y62.977 E10.85214
G1 X143.04 Y62.883 E10.87936
G1 X143.547 Y62.844 E10.89627
G1 X143.878 Y62.824 E10.9073
G1 X144.449 Y62.798 E10.92631
G1 X144.773 Y62.788 E10.93709
G1 X145.58 Y62.776 E10.96393
G1 X145.736 Y62.775 E10.96912
G1 X154.334 Y62.773 E11.25509
G1 X154.491 Y62.774 E11.26032
G1 X155.173 Y62.784 E11.283
G1 X155.452 Y62.792 E11.29229
G1 X155.965 Y62.813 E11.30936
G1 X156.278 Y62.83 E11.31979
G1 X156.83 Y62.869 E11.33819
G1 X157.615 Y62.954 E11.36445
G1 X158.108 Y63.026 E11.38103
G1 X158.463 Y63.084 E11.39299
G1 X159.082 Y63.196 E11.41391
G1 X159.956 Y63.393 E11.44371
G1 X160.512 Y63.543 E11.46286
G1 X160.828 Y63.633 E11.47379
G1 X161.339 Y63.788 E11.49155
G1 X162.095 Y64.049 E11.51815
G1 X162.572 Y64.234 E11.53517
G1 X162.91 Y64.372 E11.54731
G1 X163.487 Y64.619 E11.56819
G1 X164.285 Y65.001 E11.59762
G1 X164.773 Y65.26 E11.61599
G1 X165.053 Y65.414 E11.62662
G1 X165.539 Y65.691 E11.64522
G1 X166.257 Y66.139 E11.67337
G1 X166.721 Y66.455 E11.69204
G1 X166.981 Y66.638 E11.70262
G1 X167.426 Y66.961 E11.72091
G1 X168.142 Y67.529 E11.75131
G1 X168.585 Y67.913 E11.7708
G1 X168.809 Y68.113 E11.78079
G1 X169.222 Y68.492 E11.79944
G1 X169.848 Y69.117 E11.82886
G1 X170.25 Y69.553 E11.84858
G1 X170.466 Y69.794 E11.85935
G1 X170.805 Y70.185 E11.87656
G1 X171.317 Y70.824 E11.90379
G1 X171.63 Y71.247 E11.92129
G1 X171.841 Y71.543 E11.93338
G1 X172.172 Y72.024 E11.9528
G1 X172.598 Y72.695 E11.97924
G1 X172.858 Y73.141 E11.99641
G1 X173.035 Y73.458 E12.00849
G1 X173.319 Y73.986 E12.02843
G1 X173.71 Y74.793 E12.05825
G1 X173.947 Y75.34 E12.07808
G1 X174.063 Y75.617 E12.08807
G1 X174.255 Y76.097 E12.10526
G1 X174.534 Y76.885 E12.13307
G1 X174.693 Y77.396 E12.15087
G1 X174.789 Y77.722 E12.16217
G1 X174.949 Y78.301 E12.18215
G1 X175.154 Y79.187 E12.2124
G1 X175.254 Y79.725 E12.2306
G1 X175.301 Y80.003 E12.23997
G1 X175.394 Y80.59 E12.25974
G1 X175.498 Y81.494 E12.29001
G1 X175.534 Y81.998 E12.30681
G1 X175.55 Y82.279 E12.31617
G1 X175.576 Y82.86 E12.33552
G1 X175.586 Y83.205 E12.347
G1 X175.599 Y84.276 E12.38262
G1 X175.6 Y84.405 E12.38691
G1 X175.6 Y160.646 E14.9227
G1 X175.599 Y160.791 E14.92752
G1 X175.589 Y161.52 E14.95177
G1 X175.581 Y161.817 E14.96165
G1 X175.56 Y162.32 E14.9784
G1 X175.543 Y162.619 E14.98836
G1 X175.503 Y163.19 E15.00739
G1 X175.411 Y164.025 E15.03533
G1 X175.334 Y164.537 E15.05256
G1 X175.28 Y164.86 E15.06345
G1 X175.174 Y165.442 E15.08312
G1 X174.989 Y166.269 E15.11131
G1 X174.853 Y166.78 E15.1289
G1 X174.762 Y167.103 E15.14006
G1 X174.592 Y167.669 E15.15971
G1 X174.313 Y168.479 E15.18821
G1 X174.125 Y168.96 E15.20538
G1 X173.991 Y169.285 E15.21708
G1 X173.75 Y169.846 E15.23738
G1 X173.372 Y170.635 E15.26648
G1 X173.1 Y171.147 E15.28577
G1 X172.952 Y171.416 E15.29598
G1 X172.684 Y171.887 E15.314
G1 X172.231 Y172.613 E15.34246
G1 X171.919 Y173.071 E15.3609
G1 X171.758 Y173.302 E15.37026
G1 X171.43 Y173.757 E15.38892
G1 X170.827 Y174.516 E15.42116
G1 X170.445 Y174.955 E15.44051
G1 X170.262 Y175.161 E15.44968
G1 X169.887 Y175.57 E15.46813
G1 X169.259 Y176.199 E15.4977
G1 X168.823 Y176.601 E15.51742
G1 X168.573 Y176.824 E15.52856
G1 X168.18 Y177.164 E15.54585
G1 X167.547 Y177.671 E15.57282
G1 X167.098 Y178.003 E15.59139
G1 X166.802 Y178.214 E15.60348
G1 X166.341 Y178.531 E15.62209
G1 X165.647 Y178.97 E15.64941
G1 X165.217 Y179.219 E15.66593
G1 X164.911 Y179.39 E15.67759
G1 X164.351 Y179.69 E15.69872
G1 X163.578 Y180.064 E15.72728
G1 X163.089 Y180.277 E15.74502
G1 X162.78 Y180.406 E15.75616
G1 X162.263 Y180.612 E15.77467
G1 X161.501 Y180.882 E15.80156
G1 X160.989 Y181.042 E15.8194
G1 X160.643 Y181.144 E15.8314
G1 X160.066 Y181.303 E15.8513
G1 X159.196 Y181.504 E15.881
G1 X158.639 Y181.608 E15.89985
G1 X158.353 Y181.657 E15.9095
G1 X157.798 Y181.745 E15.92819
G1 X156.927 Y181.847 E15.95736
G1 X156.418 Y181.885 E15.97433
G1 X156.101 Y181.903 E15.98489
G1 X155.54 Y181.928 E16.00357
G1 X155.226 Y181.938 E16.01402
G1 X154.42 Y181.95 E16.04083
G1 X154.264 Y181.951 E16.04602
G1 X145.666 Y181.953 E16.33199
G1 X145.508 Y181.952 E16.33725
G1 X144.827 Y181.942 E16.3599
G1 X144.55 Y181.934 E16.36912
G1 X144.036 Y181.913 E16.38623
G1 X143.722 Y181.896 E16.39668
G1 X143.17 Y181.857 E16.41509
G1 X142.342 Y181.765 E16.4428
G1 X141.803 Y181.684 E16.46093
G1 X141.491 Y181.633 E16.47144
G1 X140.916 Y181.529 E16.49088
G1 X140.028 Y181.328 E16.52116
G1 X139.475 Y181.178 E16.54022
G1 X139.179 Y181.093 E16.55046
G1 X138.667 Y180.938 E16.56825
G1 X137.905 Y180.676 E16.59505
G1 X137.428 Y180.491 E16.61207
G1 X137.087 Y180.352 E16.62432
G1 X136.508 Y180.104 E16.64527
G1 X135.712 Y179.723 E16.67462
G1 X135.226 Y179.465 E16.69292
G1 X134.949 Y179.312 E16.70344
G1 X134.461 Y179.034 E16.72212
G1 X133.745 Y178.588 E16.75018
G1 X133.282 Y178.273 E16.76881
G1 X133.017 Y178.087 E16.77957
G1 X132.568 Y177.761 E16.79803
G1 X131.857 Y177.196 E16.82823
G1 X131.417 Y176.815 E16.84759
G1 X131.19 Y176.613 E16.8577
G1 X130.778 Y176.235 E16.8763
G1 X130.149 Y175.607 E16.90586
G1 X129.75 Y175.174 E16.92544
G1 X129.53 Y174.928 E16.93642
G1 X129.189 Y174.534 E16.95375
G1 X128.681 Y173.899 E16.9808
G1 X128.349 Y173.45 E16.99937
G1 X128.135 Y173.15 E17.01163
G1 X127.819 Y172.69 E17.03019
G1 X127.379 Y171.992 E17.05763
G1 X127.127 Y171.556 E17.07438
G1 X126.974 Y171.284 E17.08476
G1 X126.686 Y170.75 E17.10494
G1 X126.29 Y169.932 E17.13517
G1 X126.053 Y169.385 E17.15499
G1 X125.933 Y169.097 E17.16537
G1 X125.742 Y168.618 E17.18252
G1 X125.47 Y167.853 E17.20953
G1 X125.306 Y167.328 E17.22782
G1 X125.203 Y166.974 E17.24008
G1 X125.047 Y166.406 E17.25968
G1 X124.848 Y165.543 E17.28913
G1 X124.748 Y165.007 E17.30727
G1 X124.698 Y164.719 E17.31699
G1 X124.605 Y164.131 E17.33679
G1 X124.502 Y163.233 E17.36685
G1 X124.466 Y162.731 E17.38359
G1 X124.45 Y162.453 E17.39285
G1 X124.42 Y161.791 E17.41489
G1 X124.411 Y161.496 E17.42471
G1 X124.402 Y160.981 E17.44184
G1 X124.4 Y160.796 E17.448
G1 X124.4 Y84.08 E19.99958
G1 X124.401 Y83.933 E20.00447
G1 X124.411 Y83.213 E20.02842
G1 X124.419 Y82.914 E20.03837
G1 X124.442 Y82.368 E20.05654
G1 X124.459 Y82.066 E20.0666
G1 X124.497 Y81.529 E20.08451
G1 X124.589 Y80.699 E20.11228
G1 X124.667 Y80.181 E20.12971
G1 X124.72 Y79.864 E20.1404
G1 X124.827 Y79.275 E20.16031
G1 X125.019 Y78.421 E20.18942
G1 X125.153 Y77.922 E20.20661
G1 X125.241 Y77.611 E20.21736
G1 X125.415 Y77.034 E20.2374
G1 X125.693 Y76.23 E20.2657
G1 X125.877 Y75.76 E20.28248
G1 X126.009 Y75.44 E20.294
G1 X126.25 Y74.879 E20.3143
G1 X126.628 Y74.09 E20.3434
G1 X126.9 Y73.578 E20.36269
G1 X127.048 Y73.309 E20.3729
G1 X127.32 Y72.831 E20.39119
G0 F6000 X127.668 Y73.028
G1 F1200 X128.105 Y72.328 E20.41864
G1 X128.407 Y71.885 E20.43647
G1 X128.597 Y71.616 E20.44742
G1 X128.935 Y71.153 E20.46649
G1 X129.453 Y70.5 E20.49421
G1 X129.814 Y70.082 E20.51258
G1 X130.011 Y69.86 E20.52245
G1 X130.413 Y69.421 E20.54225
